material/.icons/material/table-cancel.svg

<svg xmlns="http://www.w3.org/2000/svg" viewBox="0 0 24 24"><path d="M3 3h14a2 2 0 012 2v7.08a6.01 6.01 0 00-4.32.92H11v4h1.08c-.11.68-.11 1.35 0 2H3a2 2 0 01-2-2V5c0-1.1.9-2 2-2m0 4v4h6V7H3m8 0v4h6V7h-6m-8 6v4h6v-4H3m15.5 1C16 14 14 16 14 18.5s2 4.5 4.5 4.5 4.5-2 4.5-4.5-2-4.5-4.5-4.5m0 7.5c-1.66 0-3-1.34-3-3 0-.56.15-1.08.42-1.5L20 21.08c-.42.27-.94.42-1.5.42m2.58-1.5L17 15.92c.42-.27.94-.42 1.5-.42 1.66 0 3 1.34 3 3 0 .56-.15 1.08-.42 1.5z"/></svg>

<?xml version="1.0" encoding="UTF-8"?><!DOCTYPE svg PUBLIC "-//W3C//DTD SVG 1.1//EN" "http://www.w3.org/Graphics/SVG/1.1/DTD/svg11.dtd"><svg xmlns="http://www.w3.org/2000/svg" xmlns:xlink="http://www.w3.org/1999/xlink" version="1.1" id="mdi-table-cancel" width="24" height="24" viewBox="0 0 24 24"><path d="M3 3H17C18.11 3 19 3.9 19 5V12.08C17.45 11.82 15.92 12.18 14.68 13H11V17H12.08C11.97 17.68 11.97 18.35 12.08 19H3C1.9 19 1 18.11 1 17V5C1 3.9 1.9 3 3 3M3 7V11H9V7H3M11 7V11H17V7H11M3 13V17H9V13H3M18.5 14C16 14 14 16 14 18.5S16 23 18.5 23 23 21 23 18.5 21 14 18.5 14M18.5 21.5C16.84 21.5 15.5 20.16 15.5 18.5C15.5 17.94 15.65 17.42 15.92 17L20 21.08C19.58 21.35 19.06 21.5 18.5 21.5M21.08 20L17 15.92C17.42 15.65 17.94 15.5 18.5 15.5C20.16 15.5 21.5 16.84 21.5 18.5C21.5 19.06 21.35 19.58 21.08 20Z" /></svg>
